X: 5449
T: Bunch Of Green Rushes, The
R: reel
M: 4/4
K: Dmixolydian
B|:cAGE =F3d|cAGc AddB|cAGE =F2de|1 =fdec AddB:|2 =f/e/d ec Addc||
|:AddB cAGE|=FGAd cAGc|AddB cAG2|B/^c/d ef gece:|
d2fd adfd|c2ec gcec|d2 f/e/d adfd|cAGc Add^c|
d2fd adfd|c2 e/d/c gceg|afge fded|cAGc Add||

